X: 18311
T: Humours Of Tullycrine, The
R: hornpipe
M: 4/4
K: Adorian
ed|:cAAB c3d|eaag (3efe dB|cAAc dBGA|Bdde dBAG|
EAAB c3d|eaag (3efe dB|cAAc dBGB|1 A2A^G A2:|2 A2 A^G ABcd||
|:eaa2 aged|eaa2 aged|egg2 ge d2|(3efg fa gedB|
A^GAB c3d|eaag (3efe dB|cAAc dBGB|A2A^G ABcd|
eaag aged|eaag aged|eggf ged2|(3efg fa gedB|
A^GAB cBcd|eaag (3efe dB|cAAc dBGB|A2 A^G A2 ed||

